modules/hawcons-filled/icons/icon-151-tag-cancel.svg

<?xml version="1.0" encoding="UTF-8" standalone="no"?>
<svg width="32px" height="32px" viewBox="0 0 32 32" version="1.1" xmlns="http://www.w3.org/2000/svg" xmlns:xlink="http://www.w3.org/1999/xlink" xmlns:sketch="http://www.bohemiancoding.com/sketch/ns">
    <!-- Generator: Sketch 3.0.3 (7891) - http://www.bohemiancoding.com/sketch -->
    <title>icon 151 tag cancel</title>
    <desc>Created with Sketch.</desc>
    <defs></defs>
    <g id="Page-1" stroke="none" stroke-width="1" fill="none" fill-rule="evenodd" sketch:type="MSPage">
        <g id="icon-151-tag-cancel" sketch:type="MSArtboardGroup" fill="#929292">
            <path d="M9.5,22.2071068 L7.37867966,24.3284271 L6.67157288,23.6213203 L8.79289322,21.5 L6.67157288,19.3786797 L7.37867966,18.6715729 L9.5,20.7928932 L11.6213203,18.6715729 L12.3284271,19.3786797 L10.2071068,21.5 L12.3284271,23.6213203 L11.6213203,24.3284271 L9.5,22.2071068 L9.5,22.2071068 Z M6.01331559,16.0133156 L4,14 L4,5.99961498 C4,4.88743329 4.89525812,4 5.99961498,4 L14,4 L27.3809027,17.3809027 C28.1640508,18.1640508 28.168017,19.4319586 27.3884415,20.2115341 L20.2115341,27.3884415 C19.433119,28.1668566 18.1646418,28.1646418 17.3809027,27.3809027 L14.9866844,24.9866844 C15.6282885,23.9791534 16,22.7829857 16,21.5 C16,17.9101489 13.0898511,15 9.5,15 C8.21701435,15 7.02084661,15.3717115 6.01331559,16.0133156 L6.01331559,16.0133156 L6.01331559,16.0133156 Z M9.5,11 C10.3284272,11 11,10.3284272 11,9.5 C11,8.67157283 10.3284272,8 9.5,8 C8.67157283,8 8,8.67157283 8,9.5 C8,10.3284272 8.67157283,11 9.5,11 L9.5,11 Z M9.5,27 C12.5375663,27 15,24.5375663 15,21.5 C15,18.4624337 12.5375663,16 9.5,16 C6.46243373,16 4,18.4624337 4,21.5 C4,24.5375663 6.46243373,27 9.5,27 L9.5,27 Z" id="tag-cancel" sketch:type="MSShapeGroup"></path>
        </g>
    </g>
</svg>

<svg width="32" height="32" xmlns="http://www.w3.org/2000/svg"><path d="M9.5 22.207l-2.121 2.121-.707-.707 2.12-2.121-2.12-2.121.707-.707 2.121 2.12 2.121-2.12.707.707-2.12 2.121 2.12 2.121-.707.707-2.121-2.12zm-3.487-6.194L4 14V6c0-1.113.895-2 2-2h8l13.38 13.38c.784.784.788 2.052.008 2.832l-7.176 7.176a2.003 2.003 0 0 1-2.831-.007l-2.394-2.394a6.5 6.5 0 0 0-8.973-8.973zM9.5 11a1.5 1.5 0 1 0 0-3 1.5 1.5 0 0 0 0 3zm0 16a5.5 5.5 0 1 0 0-11 5.5 5.5 0 0 0 0 11z" fill="#929292" fill-rule="evenodd"/></svg>
